public/avatar/hat/308.svg

<svg xmlns:xlink="http://www.w3.org/1999/xlink" height="92.9" width="100.7" xmlns="http://www.w3.org/2000/svg"><g transform="translate(38.65 49.75)"><use height="27.85" transform="translate(-19.65 -2.1)" width="38.4" xlink:href="#a"/><use height="23.5" transform="translate(-18.55 -1.25)" width="35.25" xlink:href="#b"/><use height="18.65" transform="translate(-17.05 -.45)" width="30.65" xlink:href="#c"/><use height="17.05" transform="translate(-14.15 .2)" width="21.5" xlink:href="#d"/></g><defs><path d="M23.15 20.85q-1.25-3.7-4.35-8.2l-2.9-3.8q-1.35.8-3.05 3.6-3.4 5.55-5.1 15.4-1.45-4-1.75-7.95v-3.2l-2.35 8.75q-.6-3.65-.6-7.05l.1-2.7L0 21.1q-.2-8.35 3.65-13.25 3.85-5 9.25-4.9l2.2-1.65Q18.2-.3 22.4.1q4.8.45 10.2 5.15 5.05 4.4 5.8 7.85l-3-2.5 1.3 2.9q1.4 3.35 1.7 5.85-2.05-3.35-3.95-5.4L32.9 12.6q3.35 8.85 1.75 14.6-1.4-6-3.85-10.15l-2.15-2.95.4 3.8q.3 4.25-.4 6.7-1.25-5.15-3.35-8.95l-1.9-2.8.15 2.65q.05 3.05-.4 5.35" fill-rule="evenodd" id="e"/><path d="M34.65 8.95h-.1l-2-.7 2.7 5.75-3-3-2.15-1.3.9 2.35.95 3.1q1 3.65 1.15 6.6-1.4-4.05-3.25-6.95l-1.75-2.2-1.8-1.7.4 2.45.5 5.95v.25q-1.25-3.45-2.8-6.1l-1.5-2.05-1.75-1.9.45 5.8-.05 1.4q-1.45-3.05-3.85-6.35l-2.25-2.9-.5-.55-.6.35Q9.4 10.4 6.5 23.5q-.8-3.2-.8-6.1l.1-4.45-1.15 1.8Q3.4 17 2.85 19.7l.1-6.95Q.7 15.3 0 16.45.75 10.7 3.2 7.5q3.55-4.6 8.6-4.55h.4l.25-.3 2.1-1.55q2.8-1.4 6.65-1 3.35.3 7.4 3.15 3.65 2.5 6.05 5.7" fill="#6c0000" fill-rule="evenodd" id="f"/><path d="m30.15 6.15-4.4-1.45 4.9 4.6q-1.2-1.05-4.05-2.7l-2.95-1.65 4.85 7.35Q25.05 7.45 18 4.15q2.15 2 5.4 6.75-3.65-4.2-7.4-6.35 2.6 3.65 3.25 8.6l-2.9-4.6q-3.05-4.5-3.95-3.9-3.3 2.35-7.15 14 .25-2.45 1.35-6.1l1-3.1L5 13.7l.5-5.3q-1.35 1-3.35 4.8l2.1-5.3Q2.65 8.95 0 12.2q2.25-6.1 7.3-8.55 2.55-1.2 4.6-1.2l2-1.45q2.65-1.4 5.85-.85 5.1.8 10.4 6" fill="#900" fill-rule="evenodd" id="g"/><path d="M6.9 6.05q1.25-.85 2.95-1.3-2.75 2.2-5.4 7.8-1.15 2.4-1.9 4.5L5.7 7.5l-2.95 3.65q.25-2.35 1-4.1L1.1 9.3l1.75-2.8L0 8.15l2.1-2.1q2.5-2.2 4.75-3L4.6 6.25l2.85-2.1L6 6.8l.9-.75m-5.95 0Q2.5 3.5 5.25 2.8L.95 6.05m19.2-.6-3.35-1.8-3.2-1.25 1.75 2.25L12.2 2.9l3.55 8.15L11.2 4.3l-.75-2.15 2.4.15-1.15-1.05 3.3-.7h-3L15.75 0q1.85.25 5.75 2.05l-4-.75 2.85 1.6-3.75-.5 3.55 3.05" id="h" fill="#f20000" fill-rule="evenodd"/><use height="27.85" width="38.4" xlink:href="#e" id="a"/><use height="23.5" width="35.25" xlink:href="#f" id="b"/><use height="18.65" width="30.65" xlink:href="#g" id="c"/><use height="17.05" width="21.5" xlink:href="#h" id="d"/></defs></svg>

<?xml version="1.0" encoding="UTF-8" standalone="no"?>
<svg xmlns:xlink="http://www.w3.org/1999/xlink" height="92.9px" width="100.7px" xmlns="http://www.w3.org/2000/svg">
  <g transform="matrix(1.0, 0.0, 0.0, 1.0, 38.65, 49.75)">
    <use height="27.85" transform="matrix(1.0, 0.0, 0.0, 1.0, -19.65, -2.1)" width="38.4" xlink:href="#sprite0"/>
    <use height="23.5" transform="matrix(1.0, 0.0, 0.0, 1.0, -18.55, -1.25)" width="35.25" xlink:href="#sprite1"/>
    <use height="18.65" transform="matrix(1.0, 0.0, 0.0, 1.0, -17.05, -0.45)" width="30.65" xlink:href="#sprite2"/>
    <use height="17.05" transform="matrix(1.0, 0.0, 0.0, 1.0, -14.15, 0.2)" width="21.5" xlink:href="#sprite3"/>
  </g>
  <defs>
    <g id="sprite0" transform="matrix(1.0, 0.0, 0.0, 1.0, 0.0, 0.0)">
      <use height="27.85" transform="matrix(1.0, 0.0, 0.0, 1.0, 0.0, 0.0)" width="38.4" xlink:href="#shape0"/>
    </g>
    <g id="shape0" transform="matrix(1.0, 0.0, 0.0, 1.0, 0.0, 0.0)">
      <path d="M23.15 20.85 Q21.9 17.15 18.8 12.65 L15.9 8.85 Q14.55 9.65 12.85 12.45 9.45 18.0 7.75 27.85 6.3 23.85 6.0 19.9 L6.0 16.7 3.65 25.45 Q3.05 21.8 3.05 18.4 L3.15 15.7 0.0 21.1 Q-0.2 12.75 3.65 7.85 7.5 2.85 12.9 2.95 L15.1 1.3 Q18.2 -0.3 22.4 0.1 27.2 0.55 32.6 5.25 37.65 9.65 38.4 13.1 L35.4 10.6 36.7 13.5 Q38.1 16.85 38.4 19.35 36.35 16.0 34.45 13.95 L32.9 12.6 Q36.25 21.45 34.65 27.2 33.25 21.2 30.8 17.05 L28.65 14.1 29.05 17.9 Q29.35 22.15 28.65 24.6 27.4 19.45 25.3 15.65 L23.4 12.85 23.55 15.5 Q23.6 18.55 23.15 20.85" fill="#000000" fill-rule="evenodd" stroke="none"/>
    </g>
    <g id="sprite1" transform="matrix(1.0, 0.0, 0.0, 1.0, 0.0, 0.0)">
      <use height="23.5" transform="matrix(1.0, 0.0, 0.0, 1.0, 0.0, 0.0)" width="35.25" xlink:href="#shape1"/>
    </g>
    <g id="shape1" transform="matrix(1.0, 0.0, 0.0, 1.0, 0.0, 0.0)">
      <path d="M34.65 8.95 L34.55 8.95 32.55 8.25 35.25 14.0 32.25 11.0 30.1 9.7 31.0 12.05 31.95 15.15 Q32.95 18.8 33.1 21.75 31.7 17.7 29.85 14.8 L28.1 12.6 26.3 10.9 26.7 13.35 27.2 19.3 27.2 19.55 Q25.95 16.1 24.4 13.45 L22.9 11.4 21.15 9.5 21.6 15.3 21.55 16.7 Q20.1 13.65 17.7 10.35 L15.45 7.45 14.95 6.9 14.35 7.25 Q9.4 10.4 6.5 23.5 5.7 20.3 5.7 17.4 L5.8 12.95 4.65 14.75 Q3.4 17.0 2.85 19.7 L2.95 12.75 Q0.7 15.3 0.0 16.45 0.75 10.7 3.2 7.5 6.75 2.9 11.8 2.95 L12.2 2.95 12.45 2.65 14.55 1.1 Q17.35 -0.3 21.2 0.1 24.55 0.4 28.6 3.25 32.25 5.75 34.65 8.95" fill="#6c0000" fill-rule="evenodd" stroke="none"/>
    </g>
    <g id="sprite2" transform="matrix(1.0, 0.0, 0.0, 1.0, 0.0, 0.0)">
      <use height="18.65" transform="matrix(1.0, 0.0, 0.0, 1.0, 0.0, 0.0)" width="30.65" xlink:href="#shape2"/>
    </g>
    <g id="shape2" transform="matrix(1.0, 0.0, 0.0, 1.0, 0.0, 0.0)">
      <path d="M30.15 6.15 L25.75 4.7 30.65 9.3 Q29.45 8.25 26.6 6.6 L23.65 4.95 28.5 12.3 Q25.05 7.45 18.0 4.15 20.15 6.15 23.4 10.9 19.75 6.7 16.0 4.55 18.6 8.2 19.25 13.15 L16.35 8.55 Q13.3 4.05 12.4 4.65 9.1 7.0 5.25 18.65 5.5 16.2 6.6 12.55 L7.6 9.45 5.0 13.7 5.5 8.4 Q4.15 9.4 2.15 13.2 L4.25 7.9 Q2.65 8.95 0.0 12.2 2.25 6.1 7.3 3.65 9.85 2.45 11.9 2.45 L13.9 1.0 Q16.55 -0.4 19.75 0.15 24.85 0.95 30.15 6.15" fill="#990000" fill-rule="evenodd" stroke="none"/>
    </g>
    <g id="sprite3" transform="matrix(1.0, 0.0, 0.0, 1.0, 0.0, 0.0)">
      <use height="17.05" transform="matrix(1.0, 0.0, 0.0, 1.0, 0.0, 0.0)" width="21.5" xlink:href="#shape3"/>
    </g>
    <g id="shape3" transform="matrix(1.0, 0.0, 0.0, 1.0, 0.0, 0.0)">
      <path d="M6.9 6.05 Q8.15 5.2 9.85 4.75 7.1 6.95 4.45 12.55 3.3 14.95 2.55 17.05 L5.7 7.5 2.75 11.15 Q3.0 8.8 3.75 7.05 L1.1 9.3 2.85 6.5 0.0 8.15 2.1 6.05 Q4.6 3.85 6.85 3.05 L4.6 6.25 7.45 4.15 6.0 6.8 6.9 6.05" fill="#f20000" fill-rule="evenodd" stroke="none"/>
      <path d="M0.95 6.05 Q2.5 3.5 5.25 2.8 L0.95 6.05" fill="#f20000" fill-rule="evenodd" stroke="none"/>
      <path d="M20.15 5.45 L16.8 3.65 13.6 2.4 15.35 4.65 12.2 2.9 15.75 11.05 11.2 4.3 10.45 2.15 12.85 2.3 11.7 1.25 15.0 0.55 12.0 0.55 15.75 0.0 Q17.6 0.25 21.5 2.05 L17.5 1.3 20.35 2.9 16.6 2.4 20.15 5.45" fill="#f20000" fill-rule="evenodd" stroke="none"/>
    </g>
  </defs>
</svg>
